X:1
T:Title
%%score { ( 1 3 ) | ( 2 4 ) }
L:1/8
Q:1/4=80
M:4/4
K:G
V:1 treble nm="Grand Piano"
V:3 treble 
V:2 bass 
V:4 bass 
V:1
 [B,D][B,D][CE][CE] [B,D]2 [DB]2 | BAAc A4 | DDEE D2 A2 | AGGB G4 | BBcB A2 E2 | AABA [B,G]2 D2 | %6
w: Thoro~Harris * * * * *||||||
 E[DF][DG][DA] [DB][Ee][Gd][EG] | [DGB]2 [CFA]2 [B,G]4 | [DB]2 D2 B2 D2 | B2 cB z2 E,2 | %10
w: ||||
 A2 D2 A2 D2 | A2 BA [B,G]4 | [EG]2 [CE][EG] [Ec]2 [CE]2 | [B,D]2 [DG]A B4 | A2 A2 E2 F2 | G6 z2 |] %16
w: ||||||
V:2
 [G,,G,][G,,G,][G,,G,][G,,G,] [G,,G,]2 [G,,G,]2 | [D,G,D][D,F,D][D,F,D][D,A,D] [D,F,D]4 | %2
 [D,F,C][D,F,C][D,F,C][D,F,C] [D,F,C]2 [D,F,C]2 | [G,C][G,B,][G,B,][G,D] [G,B,]4 | %4
 [E,^G,D][E,G,D][E,G,E][E,G,D] [E,A,^C]2 [E,=G,C]2 | [D,F,C][D,F,C][D,E,D][D,F,C] G,,2 B,,2 | %6
 [C,G,C][C,A,][B,,G,][A,,F,] [G,,G,][C,G,][B,,G,]C, | D,2 D,2 G,,4 | %8
 [G,,G,]2 [B,,G,]2 [D,G,D]2 [G,B,]2 | [E,^G,D]2 [E,G,E][E,G,D] A,2 z2 | %10
 [D,F,C]2 [D,F,C]2 [D,F,C]2 [D,F,C]2 | [D,F,C]2 [D,E,D][D,F,C] [G,,G,]4 | %12
 [C,G,]2 [C,G,][C,G,] [C,G,]2 [C,G,]2 | [G,,G,]2 [B,,G,][D,F,D] [G,D]4 | %14
 [D,F,C]2 [D,F,C]2 [D,G,C]2 [D,A,C]2 | z D,E,E, D,2 z2 |] %16
V:3
 x8 | x8 | x8 | x8 | x8 | z4 G,4 | x8 | x8 | x8 | z4 [^CA]4 | x8 | x8 | x8 | x8 | x8 | %15
 [G,B,]B,CC B,2 z2 |] %16
V:4
 x8 | x8 | x8 | x8 | x8 | x8 | x8 | x8 | x8 | z4 A,,4 | x8 | x8 | x8 | x8 | x8 | G,,6 z2 |] %16

